X:1
T:Jerusalem Moan
M:4/4
L:1/8
K:F
 z4 z2 A3/2 G/2| F2 F2 FF DC| FF FF D2 CC| F3 GA G F2| A4 z2 AG| FF FF FF C2|\
 F F2 F D2 CC| F3 GA G D2| F4 z2 cc| c3 cc c c2| c4 z2 cc| c3 cd d c2|\
 A2 A2 F2 FF| FF FF FF FF| F2 F2 DC CC| F3 GA F D2| F6 z2|
